X:1
T:Gebenedeyet sey der herr
T:Conrad Hagius
T:Source : Lobgesänge---Ursell---C.Sutorius---1606. Editor : André Vierendeels (23/25/17).
T:Notes : Original clefs : C1, C3, C4 , F4 Editorial accidentals above bthe staff Text middle German (Benedictus Dominus Deus) (Luce 1)
T:-natural
T:Gebenedeyet sey der herr
T:(Lobgesang Zachariae)
T:©
T:©
T:©
C:Conrad Hagius
Z:©
%%score [ 1 2 3 4 ]
L:1/8
Q:1/4=120
M:4/4
K:C
V:1 treble nm="Soprano" snm="S"
V:2 treble nm="Alto" snm="A"
V:3 treble-8 nm="Tenor" snm="T"
V:4 bass nm="Bass" snm="B"
V:1
"^1)" D4 D2 D2 | A4 c4 | B2 B2 A4 | z2 c2 B2 A2 | G6 E2 | ^F2 G2 A4 | z2 A2 B2 c2 | d4 A4 | %8
w: Ge- be- ne-|dey et|sey der Herr,|ihm sey un|end- lich|preisz und ehr,|der sich dem|Is- ra-|
w: Denn er sein|Volck mit|rei- chem trost,|hat heim- ge|sucht und|auch er- löst,|hat die- ser|zeit ausz|
 c2 c2 B4 | A4 z2 E2 | ^F2 A2 G2 E2 | ^F2 G2 E4 | D8 |] %13
w: el vor ja-|ren, hat|wa- ren Gott thun|of- fen- ba-|ren|
w: tre- wen pflich-|ten, ein|horn des heils uns|thun auff- rich-|ten.|
V:2
"^2)""^1)" A,4 A,2 B,2 | ^C3 D E2 E2 | E2 E2 ^C4 |"^-natural" z2 E2 E2 C2 | E6 E2 | D2 E2 F4 | %6
w: Ge- be- ne|dey- * * et|sey der Herr,|ihm sey un-|end- lich|preisz und ehr,|
w: Dasz ist ge-|schehn _ herr- lich|o- ber- ausz,|in Da- vids|sei- nes|die- ners hausz,|
 z2 F2 G2 E2 | G2 F2 F2 ED | E2 E2 E4 |"^-natural" ^C4 z2 C2 | D2 C2 EC E2- | ED D4 ^C2 | D8 |] %13
w: der sich dem|Is- ra- el, _ _|_ vor ja-|ren, hat|wa- ren Gott thun of-|* fen- baa- *|ren.|
w: wie er ge-|redt in al- * *|* ten zei-|ten, im|mund der hei- li- gen|_ Pro- phe- *|ten.|
V:3
"^3)""^1)" ^F4 F2 G2 | E4 A2 A2- | A2 ^G2 A4 | z2 A2 ^G2 A2 | c6 c2 | A2 c2 c4 | z2 c2 e2 c2 | %7
w: Ge- be- ne-|dey- et sey|_ der Herr,|ihm sey un-|end- lich|preisz und ehr,|der sich dem|
w: Dasz er uns|tet- tet in|_ dem land,|von un- sern|fein- den|wol- be- kant,|von hen- den|
 B2 A2 d2 c2- | c2 A3 ^G/^F/ G2 | A4 z2 A2 | A2 A2 c2 c2 | A2 _B2 A4 | A8 |] %13
w: Is- ra- el vor|_ ja- * * *|ren, hat|wa- ren Gott thun|of- fen- ba-|ren.|
w: al- ler, die uns|_ pla- * * *|gen, und|uns feind- lich ge-|müt nach tra-|gen.|
V:4
"^4)""^1)""^5)" D,4 D,2 G,,2 | A,,6 A,,2 | E,2 E,2 A,,4 | z2 A,,2 E,2 F,2 | C,6 C,2 | D,2 C,2 F,4 | %6
w: Ge- be- ne-|dey- et|sey der Herr,|ihm sey un-|end- lich|preisz und ehr,|
w: Dasz er sein|gna- de|men- nig- falt,|er- zei- get|un- sern|Vät- tern alt,|
 z2 F,2 E,2 A,2 | G,2 D,2 D,2 A,,2 | A,,B,,C,D, E,4 | A,,4 z2 A,,2 | D,2 F,2 C,2 C,2 | %11
w: der sich dem|Is- ra- el vor|ja- * * * *|ren, hat|wa- ren Gott thun|
w: und sein Hertz|trew- lich thet in|len- * * * *|cken, an|sei- nen heil- gen|
 D,2 G,,2 A,,4 | D,8 |] %13
w: of- fen- ba-|ren.|
w: bund zu- den-|cken.|

